static/assets/images/exchanges/lynex.svg

<svg width="278" height="256" viewBox="0 0 278 256" fill="none" xmlns="http://www.w3.org/2000/svg">
<path d="M120.745 82.1704L55.4887 125.31C53.5682 126.586 53.5682 129.415 55.4887 130.69L121.336 174.218C122.989 175.309 124.346 176.795 125.284 178.541C126.222 180.287 126.712 182.239 126.71 184.221V252.582C126.71 255.338 123.607 256.965 121.354 255.374L4.80098 173.94C3.32025 172.905 2.11071 171.528 1.27493 169.925C0.439159 168.322 0.00181547 166.541 0 164.732L0 91.2677C0 87.5882 1.79115 84.1487 4.80098 82.0595L121.336 0.625555C123.589 -0.94613 126.691 0.662697 126.691 3.41754V71.0758C126.694 73.2753 126.15 75.4409 125.109 77.3776C124.068 79.3143 122.562 80.9613 120.727 82.1704H120.745ZM277.461 91.2677V164.732C277.461 168.412 275.67 171.851 272.66 173.94L156.107 255.374C153.854 256.946 150.752 255.337 150.752 252.582V184.221C150.75 182.239 151.24 180.287 152.178 178.541C153.116 176.795 154.472 175.309 156.125 174.218L221.973 130.69C223.893 129.415 223.893 126.586 221.973 125.31L156.716 82.1704C154.883 80.9596 153.378 79.3122 152.337 77.3758C151.296 75.4395 150.752 73.2748 150.752 71.0758V3.41754C150.752 0.662697 153.854 -0.964701 156.107 0.625555L272.66 82.0595C274.141 83.0946 275.351 84.4721 276.186 86.0751C277.022 87.6781 277.459 89.4594 277.461 91.2677Z" fill="#FAF0F0"/>
</svg>

<svg xmlns="http://www.w3.org/2000/svg" fill="none" viewBox="0 0 278 256"><path fill="#FAF0F0" d="m120.745 82.17-65.256 43.14c-1.92 1.276-1.92 4.105 0 5.38l65.847 43.528a11.96 11.96 0 0 1 5.374 10.003v68.361c0 2.756-3.103 4.383-5.356 2.792L4.801 173.94A11.24 11.24 0 0 1 0 164.732V91.268c0-3.68 1.791-7.12 4.801-9.208L121.336.626c2.253-1.572 5.355.037 5.355 2.792v67.658a13.27 13.27 0 0 1-5.964 11.094zm156.716 9.098v73.464c0 3.68-1.791 7.119-4.801 9.208l-116.553 81.434c-2.253 1.572-5.355-.037-5.355-2.792v-68.361a11.98 11.98 0 0 1 5.373-10.003l65.848-43.528c1.92-1.275 1.92-4.104 0-5.38l-65.257-43.14a13.29 13.29 0 0 1-5.964-11.094V3.418c0-2.755 3.102-4.383 5.355-2.792L272.66 82.06a11.26 11.26 0 0 1 4.801 9.208"/></svg>
